build/img/icons/download.svg

<svg width="18" height="17" viewBox="0 0 18 17" fill="none" xmlns="http://www.w3.org/2000/svg">
<path d="M8.85234 11.9922C8.86988 12.0146 8.89229 12.0327 8.91788 12.0452C8.94346 12.0577 8.97154 12.0641 9 12.0641C9.02846 12.0641 9.05654 12.0577 9.08212 12.0452C9.10771 12.0327 9.13012 12.0146 9.14766 11.9922L11.7727 8.67109C11.8687 8.54922 11.782 8.36875 11.625 8.36875H9.88828V0.4375C9.88828 0.334375 9.80391 0.25 9.70078 0.25H8.29453C8.19141 0.25 8.10703 0.334375 8.10703 0.4375V8.36641H6.375C6.21797 8.36641 6.13125 8.54688 6.22734 8.66875L8.85234 11.9922ZM17.5781 11.1719H16.1719C16.0687 11.1719 15.9844 11.2562 15.9844 11.3594V14.9688H2.01562V11.3594C2.01562 11.2562 1.93125 11.1719 1.82812 11.1719H0.421875C0.31875 11.1719 0.234375 11.2562 0.234375 11.3594V16C0.234375 16.4148 0.569531 16.75 0.984375 16.75H17.0156C17.4305 16.75 17.7656 16.4148 17.7656 16V11.3594C17.7656 11.2562 17.6813 11.1719 17.5781 11.1719Z" fill="#5CC773"/>
</svg>

<svg width="18" height="17" fill="none" xmlns="http://www.w3.org/2000/svg">
    <path d="M8.852 11.992a.188.188 0 0 0 .296 0l2.625-3.32a.187.187 0 0 0-.148-.303H9.888V.438A.188.188 0 0 0 9.701.25H8.295a.188.188 0 0 0-.188.188v7.928H6.375a.187.187 0 0 0-.148.303l2.625 3.323zm8.726-.82h-1.406a.188.188 0 0 0-.188.187v3.61H2.016v-3.61a.188.188 0 0 0-.188-.187H.422a.188.188 0 0 0-.188.187V16c0 .415.336.75.75.75h16.032a.75.75 0 0 0 .75-.75v-4.64a.188.188 0 0 0-.188-.188z" fill="#5CC773"/>
</svg>
